images/footer-bg.svg

<svg width="1448" height="434" viewBox="0 0 1448 434" fill="none" xmlns="http://www.w3.org/2000/svg">
<path d="M588.505 250.15C555.879 253.821 553.025 256.879 549.354 289.505C545.684 256.879 542.625 253.821 510 250.15C542.625 246.48 545.684 243.625 549.354 211C553.025 243.625 555.879 246.48 588.505 250.15Z" fill="#1E84B5" fill-opacity="0.1"/>
<path d="M78.5047 393.158C45.8794 396.829 43.0246 399.887 39.3543 432.512C35.6839 399.887 32.6253 396.829 0 393.158C32.6253 389.488 35.6839 386.633 39.3543 354.008C43.0246 386.633 45.8794 389.488 78.5047 393.158Z" fill="#1E84B5" fill-opacity="0.1"/>
<path d="M88.3199 362.031C75.7941 363.44 74.6981 364.614 73.2889 377.14C71.8798 364.614 70.7055 363.44 58.1797 362.031C70.7055 360.622 71.8798 359.526 73.2889 347C74.6981 359.526 75.7941 360.622 88.3199 362.031Z" fill="#1E84B5" fill-opacity="0.1"/>
<path d="M286.505 39.1504C253.879 42.8208 251.025 45.8794 247.354 78.5047C243.684 45.8794 240.625 42.8208 208 39.1504C240.625 35.4801 243.684 32.6253 247.354 0C251.025 32.6253 253.879 35.4801 286.505 39.1504Z" fill="#1E84B5" fill-opacity="0.1"/>
<path d="M1412.65 433.306C1407.81 433.306 1403.88 429.369 1403.88 424.531V372.776C1403.88 367.938 1407.81 364 1412.65 364C1417.38 364 1421.31 367.938 1421.31 372.776V424.531C1421.31 429.369 1417.38 433.306 1412.65 433.306Z" fill="#1E84B5" fill-opacity="0.1"/>
<path d="M1378 398.655C1378 393.817 1381.94 389.879 1386.66 389.879H1438.53C1443.37 389.879 1447.19 393.817 1447.19 398.655C1447.19 403.493 1443.37 407.431 1438.53 407.431H1386.66C1381.94 407.431 1378 403.493 1378 398.655Z" fill="#1E84B5" fill-opacity="0.1"/>
</svg>

<svg xmlns="http://www.w3.org/2000/svg" width="1448" height="434" fill="none" viewBox="0 0 1448 434"><path fill="#1e84b5" fill-opacity=".1" d="M588.505 250.15c-32.626 3.671-35.48 6.729-39.151 39.355-3.67-32.626-6.729-35.684-39.354-39.355 32.625-3.67 35.684-6.525 39.354-39.15 3.671 32.625 6.525 35.48 39.151 39.15m-510 143.008c-32.626 3.671-35.48 6.729-39.15 39.354-3.671-32.625-6.73-35.683-39.355-39.354 32.625-3.67 35.684-6.525 39.354-39.15 3.67 32.625 6.525 35.48 39.15 39.15m9.816-31.127c-12.526 1.409-13.622 2.583-15.031 15.109-1.41-12.526-2.584-13.7-15.11-15.109 12.526-1.409 13.7-2.505 15.11-15.031 1.41 12.526 2.505 13.622 15.03 15.031M286.505 39.15c-32.626 3.67-35.48 6.73-39.151 39.355-3.67-32.626-6.729-35.684-39.354-39.355 32.625-3.67 35.684-6.525 39.354-39.15 3.671 32.625 6.525 35.48 39.151 39.15M1412.65 433.306c-4.84 0-8.77-3.937-8.77-8.775v-51.755c0-4.838 3.93-8.776 8.77-8.776 4.73 0 8.66 3.938 8.66 8.776v51.755c0 4.838-3.93 8.775-8.66 8.775"/><path fill="#1e84b5" fill-opacity=".1" d="M1378 398.655c0-4.838 3.94-8.776 8.66-8.776h51.87c4.84 0 8.66 3.938 8.66 8.776s-3.82 8.776-8.66 8.776h-51.87c-4.72 0-8.66-3.938-8.66-8.776"/></svg>
